!!!!SEGMENT: pl-kk--kk-i-636--002-012_anonim--in-parasceve-responsorium-9num.krn
!!!cenid: 18xx:4546
!!!COM: Anonim
!!!COM-rismID: pe30004985
!!!CDT:
!!!CNT:
!!!OPR: In Parasceve
!!!OTL: Responsorium 9num
!!!OMV: 012
!!!PDT:
!!!AGN: Sacred
!!!YEC: Copyright 2022 Narodowy Instytut Fryderyka Chopina (https://polishscores.org)
!!!YEM: License CC-BY-4.0 (https://creativecommons.org/licenses/by/4.0)
!!!SMS-siglum: PL-Kk
!!!SMS-shelfmark: Kk.I.636
!!!SMS-variant:
!!!SMS-altvar:
!!!SMS-shelfwork: 002-012 M
!!!NIFC-rismSourceID: 1001216440
!!!NIFC-rismChildID: 1001217601
!!!NIFC-islandoraID: pl-kk:40786
!!!URL-pdf-islandora: https://repozytorium.nifc.pl/islandora/object/pl-kk%3A40786/datastream/PDF/view
!!!URL-scan: https://polish.musicsources.pl/pl/lokalizacje/galeria/rekopisy/7271/1 @EN{Scan on Polish Music Sources Website} @PL{Skany w portalu Dziedzictwo Muzyki Polskiej w otwartym dostępie}
!!!IIIF:
!!!ONB-nifc: UWAGA: Lamentacje i Responsoria In Parasceve na skanach: S – 8-14, A – 31-37,T – 53-60, B – 78-86. Każda Lamentacja i Responsorium to oddzielne pliki.
!!!AIN: 1 alto 1 bass 1 soprn 1 tenor
!!!key:
**kern	**text	**kern	**text	**kern	**text	**kern	**text
*part4	*part4	*part3	*part3	*part2	*part2	*part1	*part1
*staff4	*staff4	*staff3	*staff3	*staff2	*staff2	*staff1	*staff1
*I"Basso	*	*I"Tenore	*	*I"Alto	*	*I"Soprano.	*
*I'B.	*	*I'T.	*	*I'A.	*	*I'S.	*
*Ibass	*	*Itenor	*	*Ialto	*	*Isoprn	*
*ICvox	*	*ICvox	*	*ICvox	*	*ICvox	*
*clefF4	*	*clefC4	*	*clefC3	*	*clefC1	*
*k[]	*	*k[]	*	*k[]	*	*k[]	*
*d:	*	*d:	*	*d:	*	*d:	*
*M4/4	*	*M4/4	*	*M4/4	*	*M4/4	*
*met(c)	*	*met(c)	*	*met(c)	*	*met(c)	*
=1	=1	=1	=1	=1	=1	=1	=1
!	!	!LO:TX:a:t=4.	!	!LO:TX:a:t=3.	!	!LO:TX:a:t=1	!
*2\right	*	*	*	*	*	*	*
2A\	Ca-	00r	.	0r	.	1r	.
4A\	-li-	.	.	.	.	.	.
4A\	-ga-	.	.	.	.	.	.
=2	=2	=2	=2	=2	=2	=2	=2
*	*	*	*	*	*	*2\right	*
2G#X\	-ve-	.	.	.	.	2ee\	Ca-
2G#\	-runt	.	.	.	.	4ee\	-li-
.	.	.	.	.	.	4ee\	-ga-
!LO:LB:g=original	!	!	!	!	!	!LO:LB:g=original	!
=3	=3	=3	=3	=3	=3	=3	=3
2Gn\	o-	.	.	1r	.	2cc#X\	-ve-
4G\	-cu-	.	.	.	.	2cc#\	-runt
4G\	-li	.	.	.	.	.	.
=4	=4	=4	=4	=4	=4	=4	=4
*	*	*	*	*2\right	*	*	*
1F	me-	.	.	2a\	Ca-	2dd\	o-
.	.	.	.	4a\	-li-	4dd\	-cu-
.	.	.	.	4a\	-ga-	4dd\	-li
!	!	!	!	!LO:LB:g=original	!	!	!
=5	=5	=5	=5	=5	=5	=5	=5
*	*	*2\right	*	*	*	*	*
2E\	-i	2e\	Ca-	2g#X\	-ve-	1b	me-
2E\	a	4e\	-li-	2g#\	-runt	.	.
.	.	4e\	-ga-	.	.	.	.
=6	=6	=6	=6	=6	=6	=6	=6
1A	fle-	2c#X\	-ve-	2gn\	o-	2a\	-i
.	.	2c#\	-runt	4g\	-cu-	2cc#X\	a
.	.	.	.	4g\	-li	.	.
!	!	!LO:LB:g=original	!	!	!	!	!
=7	=7	=7	=7	=7	=7	=7	=7
2D\	-tu	2d\	o-	2f#X\	me-	1ccn	fle-
2D\	a	4d\	-cu-	4f#\	-i	.	.
.	.	4d\	-li	4f#\	a	.	.
=8	=8	=8	=8	=8	=8	=8	=8
1G	fle-	2d\	me-	1fn	fle-	4b\	-tu,
.	.	.	.	.	.	4g\	a
.	.	4B\	-i	.	.	[2dd\	fle-
.	.	4G\	a	.	.	.	.
!LO:LB:g=original	!	!	!	!	!	!LO:LB:g=original	!
=9	=9	=9	=9	=9	=9	=9	=9
1C	-tu	2G/	fle-	2e\	-tu	4dd\]	.
.	.	.	.	.	.	8.cc\L	.
.	.	.	.	.	.	16b\Jk	.
.	.	2c\	-tu	2e\	me-	4cc\	.
.	.	.	.	.	.	4g\	-tu
!	!	!	!	!LO:LB:g=original	!	!	!
=10	=10	=10	=10	=10	=10	=10	=10
1F	me-	2.c\	me-	2e\	.	1a	me-
.	.	.	.	2d#X\	.	.	.
.	.	8B\L	.	.	.	.	.
.	.	8A\J	.	.	.	.	.
=11	=11	=11	=11	=11	=11	=11	=11
1E	-o,	1B	-o,	1e	-o,	1g#X	-o,
!	!	!LO:LB:g=original	!	!	!	!	!
=12	=12	=12	=12	=12	=12	=12	=12
8C/	qu-	2r	.	2r	.	8gn\	qu-
8D/	-ia	.	.	.	.	8g\	-ia
8E\	e-	.	.	.	.	8cc\	e-
8F\	-lon-	.	.	.	.	8cc\	-lon-
4.G\	-ga-	8G/	qu-	8d\	qu-	8.b\L	-ga-
.	.	8A/	-ia	8d\	-ia	.	.
.	.	.	.	.	.	16a\Jk	.
.	.	8B\	e-	8g\	e-	4g\	-tus
16F\LL	.	8c\	-lon-	8g\	-lon-	.	.
16E\JJ	.	.	.	.	.	.	.
!	!	!	!	!	!	!LO:LB:g=original	!
=13	=13	=13	=13	=13	=13	=13	=13
8D\L	.	8d\L	-ga-	4.f\	-ga-	4r	.
8E\	.	16c\L	.	.	.	.	.
.	.	16B\JJ	.	.	.	.	.
8F\	.	8A\L	.	.	.	8dd\	e-
8G\J	.	8B\J	.	8f\	-tus	8dd\	-lon-
!LO:LB:g=original	!	!	!	!	!	!	!
8A\	.	8c\	.	4e\	est	8cc\	-ga-
8A\	-tus	8c\	-tus	.	.	8cc\	-tus
8G\	est	8d\	est	4g\	a	8b\	est
8G\	a	8d\	a	.	.	8b\	a
!	!	!	!	!LO:LB:g=original	!	!	!
=14	=14	=14	=14	=14	=14	=14	=14
4c\	me,	4e\	me,	4g\	me,	4cc\	me,
4.c\	qui	4.e\	qui	4.g\	qui	4.cc\	qui
8B\	con-	8e\	con-	8g\	con-	8cc\	con-
8A\	-so-	8e\	-so-	8a\	-so-	8cc\	-so-
8G\	-la-	8e\	-la-	8a\	-la-	8cc\	-la-
!	!	!LO:LB:g=original	!	!	!	!LO:LB:g=original	!
=15	=15	=15	=15	=15	=15	=15	=15
4F\	-ba-	4d\	-ba-	4a\	-ba-	4cc\	-ba-
4G\	-tur	4d\	-tur	4g\	-tur	4b\	-tur
4C/	me,	4e\	me,	4g\	me,	2cc\	me:
4C/	vi-	4e\	vi-	4g\	vi-	.	.
!LO:LB:g=original	!	!	!	!	!	!	!
=16	=16	=16	=16	=16	=16	=16	=16
2F\	-de-	2d\	-de-	2a\	-de-	4cc\	vi-
.	.	.	.	.	.	2cc\	-de-
2F#X\	-te	2d\	-te	2a\	-te	.	.
.	.	.	.	.	.	8b\L	-te
.	.	.	.	.	.	8a\J	.
=17	=17	=17	=17	=17	=17	=17	=17
4G\	om-	8d\L	om-	4g\	om-	8b\	om-
.	.	8B\J	.	.	.	8g\	-nnes
4E\	-nes	4G/	-nes	4g\	-nes	2cc\	po-
4.D\	po-	4A/	po-	4.f\	po-	.	.
.	.	8G/L	-pu-	.	.	4b\	-pu-
8D\	-pu-	8F/J	.	8f\	-pu-	.	.
!	!	!	!	!LO:LB:g=original	!	!	!
=18	=18	=18	=18	=18	=18	=18	=18
4C/	-li,	4E/	-li,	4e\	-li,	4cc\	-li,
2c\	si	2c\	si	2e\	si	2g\	si
4c\	est	4c\	est	4e\	est	4g\	est
!	!	!LO:LB:g=original	!	!	!	!LO:LB:g=original	!
=19	=19	=19	=19	=19	=19	=19	=19
1B-X	do-	1c#X	do-	1e	do-	1g	do-
=20	=20	=20	=20	=20	=20	=20	=20
1A	-lor	1d	-lor	4e\	.	4g/	.
.	.	.	.	8d\L	.	8f/L	.
.	.	.	.	8c#X\J	.	8e/J	.
.	.	.	.	2d\	-lor	2f/	-lor
!LO:LB:g=original	!	!	!	!	!	!	!
=21	=21	=21	=21	=21	=21	=21	=21
2c\	do-	2d#X\	do-	2f#X\	do-	2a\	do-
2c\	-lor	2d#\	-lor	2f#\	-lor	2a\	-lor
=22	=22	=22	=22	=22	=22	=22	=22
4.Bn\	si-	4.dn\	si-	4.e\	si-	4a\	si-
.	.	.	.	.	.	8g#X/L	-mi-
8E\	-mi-	8c\	-mi-	8e\	-mi-	8f#X/J	.
2E\	-lis,	2B\	-lis	2e\	-lis	2g#\	-lis
=23	=23	=23	=23	=23	=23	=23	=23
2A\	si-	2c\	si-	2e\	si-	2a\	si-
!	!	!	!	!LO:TX:b:t=V.S.	!	!	!
2Gn\	-cut	2c#X\	-cut	2e\	-cut	2a\	-cut
!	!	!	!	!LO:PB:g=original	!	!LO:LB:g=original	!
=24	=24	=24	=24	=24	=24	=24	=24
2F\	do-	2d\	do-	2f\	do-	2a\	do-
2C#X/	-lor	2e\	.	[2g\	.	2a\	-lor
!	!	!LO:LB:g=original	!	!	!	!	!
=25	=25	=25	=25	=25	=25	=25	=25
!	!	!	!	!LO:N:xstem:cue	!	!	!
1D	me-	4e\	.	4g\]	.	1a	me-
.	.	8d\L	-lor	8f\L	-lor	.	.
.	.	8c#X\J	.	8e\J	.	.	.
.	.	2d\	me-	2f\	me-	.	.
=26	=26	=26	=26	=26	=26	=26	=26
!	!	!LO:N:xstem:cue	!	!LO:N:xstem:cue	!	!	!
1AA	.	4d\	.	4f\	.	1a	.
.	.	8c#X\L	.	8e\L	.	.	.
.	.	8B\J	.	8d\J	.	.	.
.	.	2c#\	.	2e\	.	.	.
=27	=27	=27	=27	=27	=27	=27	=27
!LO:TX:b:t=Volti Subitto&colon;	!	!	!	!	!	!	!
1AA	-us.	1c#X	-us.	1e	-us,	1a	-us.
!LO:PB:g=original	!	!	!	!	!	!	!
=28||	=28||	=28||	=28||	=28||	=28||	=28||	=28||
*M4/4	*	*M4/4	*	*M4/4	*	*M4/4	*
*met(c)	*	*met(c)	*	*met(c)	*	*met(c)	*
!LO:TX:a:t=4.	!	!LO:TX:a:i:t=Solo.	!	!	!	!LO:TX:a:t=4.	!
00r	.	2G/	O-	4.c\	o-	1r	.
.	.	.	.	8d\	.	.	.
.	.	2c\	-vos	2e\	-vos	.	.
!	!	!	!	!LO:LB:g=original	!	!	!
=29	=29	=29	=29	=29	=29	=29	=29
.	.	4c\	om-	4e\	om-	1r	.
.	.	4B\	-nes	4d\	-nes	.	.
.	.	2d\	qui	2f\	qui	.	.
=30	=30	=30	=30	=30	=30	=30	=30
.	.	4d\	tran-	4f\	.	1r	.
.	.	8c\L	.	4e\	tran-	.	.
.	.	8B\J	.	.	.	.	.
.	.	4A\	.	2g\	-si-	.	.
.	.	4B\	-si-	.	.	.	.
!	!	!LO:LB:g=original	!	!	!	!	!
=31	=31	=31	=31	=31	=31	=31	=31
.	.	4c\	-tis	8g\L	-tis	1r	.
.	.	.	.	8f\J	.	.	.
.	.	4G/	per	8.e\L	per	.	.
.	.	.	.	16f\Jk	.	.	.
.	.	2c\	vi-	2e\	vi-	.	.
=32	=32	=32	=32	=32	=32	=32	=32
2D\	o-	4B\	-tam,	4d\	-am,	4.g\	O-
.	.	4r	.	4r	.	.	.
.	.	.	.	.	.	8a\	.
2G\	-vos	2r	.	2r	.	2b\	-vos
!	!	!	!	!	!	!LO:LB:g=original	!
=33	=33	=33	=33	=33	=33	=33	=33
!	!	!LO:TX:a:t=3.	!	!LO:TX:a:t=3.	!	!	!
4G\	om-	0r	.	0r	.	4b\	o-
4F#X\	-nes	.	.	.	.	4a\	-mnes
[2A\	qui	.	.	.	.	[2cc\	qui
=34	=34	=34	=34	=34	=34	=34	=34
4A\]	.	.	.	.	.	4cc\]	.
8.G\L	tran-	.	.	.	.	4b\	tran-
16F#X\Jk	.	.	.	.	.	.	.
4E\	-si-	.	.	.	.	2ee\	-si-
4A\	.	.	.	.	.	.	.
!LO:LB:g=original	!	!	!	!	!	!	!
=35	=35	=35	=35	=35	=35	=35	=35
4A\	.	1r	.	1r	.	8dd\L	-tis
.	.	.	.	.	.	8cc\J	.
4.G\	-tis	.	.	.	.	8b\L	per
.	.	.	.	.	.	8dd\J	.
.	.	.	.	.	.	8qdd/	.
.	.	.	.	.	.	2cc\	vi-
16F#X\LL	per	.	.	.	.	.	.
16E\JJ	.	.	.	.	.	.	.
4F#\	vi-	.	.	.	.	.	.
!	!	!	!	!LO:LB:g=original	!	!	!
=36	=36	=36	=36	=36	=36	=36	=36
4G\	-am,	4r	.	2r	.	2b\	-am,
4r	.	4d\	at-	.	.	.	.
2r	.	8.B\	-ten-	4r	.	4r	.
.	.	16A\	-di-	.	.	.	.
.	.	4G/	-te,	4g\	at-	4b\	at-
!	!	!	!	!	!	!LO:PB:g=original	!
=37	=37	=37	=37	=37	=37	=37	=37
!	!	!LO:TX:a:t=1	!	!	!	!	!
4r	.	1r	.	8.g\	-ten-	8.b\	-ten-
.	.	.	.	16f#X\	-di-	16a\	-di-
4d\	at-	.	.	4f#\	-te	4a\	-te
8.B\	-ten-	.	.	2fn\	et	2dd\	et
16A\	-di-	.	.	.	.	.	.
4G\	-te	.	.	.	.	.	.
=38	=38	=38	=38	=38	=38	=38	=38
2c\	et	4r	.	8f\L	.	8dd\L	.
.	.	.	.	8e\J	.	8cc\J	.
.	.	2B\	et	8e\L	vi-	8cc\L	vi-
.	.	.	.	8d\J	.	8b\J	.
2F#X\	vi-	.	.	2e\	-de-	[2cc\	-de-
.	.	4A\	vi-	.	.	.	.
!LO:LB:g=original	!	!LO:LB:g=original	!	!	!	!	!
=39	=39	=39	=39	=39	=39	=39	=39
2G\	-de-	2G/	-de-	4e\	.	4cc\]	.
.	.	.	.	8d\L	.	8b\L	.
.	.	.	.	8c\J	.	8a\J	.
4G\	-te	4G/	-te	4d\	-te,	4b\	-te,
4B\	at-	4r	.	4g\	at-	4r	.
!	!	!	!	!LO:LB:g=original	!	!LO:LB:g=original	!
=40	=40	=40	=40	=40	=40	=40	=40
8.c\	-ten-	4r	.	8.f\	-ten-	4r	.
16C/	-di-	.	.	16e\	-di-	.	.
4C/	-te	2e\	et	4d\	-te	2g\	et
2r	.	.	.	2r	.	.	.
.	.	4e\	vi-	.	.	4cc\	vi-
=41	=41	=41	=41	=41	=41	=41	=41
4r	.	8.d\L	-de-	4r	.	8.b\L	-de-
.	.	16c\Jk	.	.	.	16a\Jk	.
4G\	at-	4B\	-te	4d\	at-	4g\	-te
4B\	.	2r	.	[2g\	-ten-	4r	.
4G\	.	.	.	.	.	4b\	at-
=42	=42	=42	=42	=42	=42	=42	=42
4.d\	-ten-	2r	.	8g\L]	.	8.a\	-ten-
.	.	.	.	16f#X\L	-di-	.	.
.	.	.	.	16e\JJ	.	16g\	-di-
.	.	.	.	4f#\	-te	4a\	-te
8c\	-di-	.	.	.	.	.	.
4B\	-te	2d\	et	2fn\	et	4b\	et
4r	.	.	.	.	.	4b\	vi-
!LO:LB:g=original	!	!	!	!	!	!LO:LB:g=original	!
=43	=43	=43	=43	=43	=43	=43	=43
4r	.	8d\L	.	8f\L	.	4cc\	-de-
.	.	8c\J	.	8e\J	.	.	.
2c\	et	8c\L	vi-	8e\L	vi-	4g\	.
.	.	8B\J	.	8d\J	.	.	.
.	.	2B\	-de-	2e\	-de-	2cc\	.
4F#X\	vi-	.	.	.	.	.	.
!	!	!	!	!LO:LB:g=original	!	!	!
=44	=44	=44	=44	=44	=44	=44	=44
4.G\	-de-	4B\	-te,	4d\	-te	4b\	-te,
.	.	4r	.	4f\	et	4dd\	et-
8A\	.	.	.	.	.	.	.
4B\	.	2r	.	8f\L	.	8dd\L	.
.	.	.	.	8e\J	.	8cc\J	.
4G\	.	.	.	8e\L	vi-	8cc\L	-vi-
.	.	.	.	8d\J	.	8b\J	.
!	!	!LO:LB:g=original	!	!	!	!	!
=45	=45	=45	=45	=45	=45	=45	=45
2c\	.	4r	.	4e\	-de-	4.cc\	-de-
.	.	2c\	et	4a\	.	.	.
.	.	.	.	.	.	8b\	.
4E\	-te	.	.	4g\	-te	4cc\	-te
4A\	vi-	4c\	vi-	4f\	vi-	4a\	vi-
!	!	!	!	!	!	!LO:LB:g=original	!
=46	=46	=46	=46	=46	=46	=46	=46
1G	-de-	1G	-de-	4.e\	-de-	4.cc\	-de-
.	.	.	.	16d\LL	.	16b\LL	.
.	.	.	.	16c\JJ	.	16a\JJ	.
.	.	.	.	2d\	.	2b\	.
=47	=47	=47	=47	=47	=47	=47	=47
1C	-te,	1G	-te,	1c	-te,	1cc	-te,
!LO:LB:g=original	!	!	!	!	!	!	!
=48||	=48||	=48||	=48||	=48||	=48||	=48||	=48||
*M4/4	*	*M4/4	*	*M4/4	*	*M4/4	*
*met(c)	*	*met(c)	*	*met(c)	*	*met(c)	*
2F\	Si	2c\	si	2e\	si	2a\	si
2F\	est	2c\	est	2e\	est	2a\	est
!	!	!	!	!LO:LB:g=original	!	!	!
=49	=49	=49	=49	=49	=49	=49	=49
1B-X	do-	1c#X	do-	1e	do-	1g	do-
=50	=50	=50	=50	=50	=50	=50	=50
1A	-lor	1d	-lor	4e\	.	4g/	.
.	.	.	.	8d\L	.	8f/L	.
.	.	.	.	8c#X\J	.	8e/J	.
.	.	.	.	2d\	-lor	2f/	-lor
!	!	!	!	!	!	!LO:LB:g=original	!
=51	=51	=51	=51	=51	=51	=51	=51
2c\	do-	2d#X\	do-	2f#X\	do-	2a\	do-
2c\	-lor	2d#\	-lor	2f#\	-lor	2a\	-lor
=52	=52	=52	=52	=52	=52	=52	=52
4.Bn\	si-	4.dn\	si-	4.e\	si-	4a\	si-
.	.	.	.	.	.	8g#X/L	-mi-
8E\	-mi-	8c\	-mi-	8e\	-mu-	8f#X/J	.
2E\	-lis,	2B\	-lis	2e\	-lis	2g#X/	-lis
!	!	!LO:LB:g=original	!	!	!	!	!
=53	=53	=53	=53	=53	=53	=53	=53
2A\	si-	2c\	si-	2e\	si-	2a\	si-
2Gn\	-cut	2c#X\	-cut	2e\	-cut	2a\	-cut
!LO:LB:g=original	!	!	!	!	!	!	!
=54	=54	=54	=54	=54	=54	=54	=54
2F\	do-	2d\	do-	2fn\	do-	2a\	do-
2C#X/	-lor	2e\	.	2g\	.	2a\	-lor
!	!	!	!	!LO:LB:g=original	!	!LO:LB:g=original	!
=55	=55	=55	=55	=55	=55	=55	=55
1D	me-	4e\	.	4g\	.	1a	me-
.	.	8d\L	-lor	8f\L	-lor	.	.
.	.	8c#X\J	.	8e\J	.	.	.
.	.	2d\	me-	2f\	me-	.	.
=56	=56	=56	=56	=56	=56	=56	=56
!	!	!	!	!LO:N:xstem:cue	!	!	!
[1AA	-us.	4d\	.	4f\	.	1a	.
.	.	8c#X\L	.	8e\L	.	.	.
.	.	8B\J	.	8d\J	.	.	.
.	.	2c#\	.	2e\	.	.	.
=57	=57	=57	=57	=57	=57	=57	=57
1AA]	.	1c#	-us.	1e	-us.	1a	-us.
==	==	==	==	==	==	==	==
*-	*-	*-	*-	*-	*-	*-	*-
!!!system-decoration: [(s1,s2,s3,s4)]
!!!ENC: Berenika Jozajtis
!!!END: 2023-11-17
!!!ENC: Leszek Kubiak
!!!END: 2024-06-12
